!!! OTL: Berkowitz360
!!! Chapter: 1
!!! Section: III
!!! Page: 88
!!! Mode: 
!!! Encoder: DJB
**kern
*staff1
*I"Piano
=1-
*clefG2
*k[b-]
*F:
*met(c|)
*M2/2
2r
8cc\L
8dd\
8bn\
8cc\J
=2
4.cc#\
8dd\
2dd\
=3
2r
8e/L
8f/
8d/
8e/J
=4
4.g/
8f/
2f/
=5
2r
8a/L
8b-/
8g#/
8a/J
=6
4.dd\
8cc\
4.cc\
8b-\
=7
4.b-\
8a/
8g#/L
8a/
8e/
8f/J
=8
!!linebreak:original
4.a/
8g/
2g/
=9
4r
4c/
8a/L
8b-/
8g#/
8a/J
=10
4.ee\
8dd\
2dd\
=11
4r
8r
8dd\
8cc/L
8b-/
8a/
8g#/J
=12
4.b-\
8a/
2a/
=13
4r
[4g/
8g/L]
8a/
8f#/
8g/J
=14
4.dd\
8cc\
2cc\
=15
!!linebreak:original
4r
8r
[8e/
8e/L]
8f/
8d/
8e/J
=16
2.a/
4c/
=17
2f/
2r
==
*-
